src/images/typescript-icon.svg

<svg width="33" height="33" viewBox="0 0 33 33" fill="none" xmlns="http://www.w3.org/2000/svg">
<path d="M29.5845 2.0625H3.4155C2.66826 2.0625 2.0625 2.66826 2.0625 3.4155V29.5845C2.0625 30.3317 2.66826 30.9375 3.4155 30.9375H29.5845C30.3317 30.9375 30.9375 30.3317 30.9375 29.5845V3.4155C30.9375 2.66826 30.3317 2.0625 29.5845 2.0625Z" fill="#902BA9"/>
<path fill-rule="evenodd" clip-rule="evenodd" d="M18.8151 24.5015V27.6653C19.39 27.9491 20.0026 28.1488 20.6343 28.2583C21.3642 28.3931 22.1051 28.4593 22.8473 28.4563C23.5707 28.4597 24.2925 28.3868 25.0006 28.2387C25.6363 28.1102 26.2429 27.8655 26.7898 27.5168C27.2975 27.1891 27.716 26.7405 28.0077 26.2113C28.5301 25.1154 28.5991 23.8576 28.1995 22.7112C28.0309 22.2825 27.7797 21.8911 27.4601 21.5593C27.1171 21.2065 26.7274 20.9022 26.302 20.6549C25.8122 20.368 25.3033 20.1151 24.7788 19.898C24.3663 19.7268 23.9951 19.5604 23.6651 19.3988C23.372 19.2585 23.0915 19.0932 22.8267 18.9049C22.6193 18.7595 22.4392 18.5786 22.2946 18.3707C22.1696 18.1819 22.1046 17.9597 22.1079 17.7334C22.1052 17.525 22.1632 17.3204 22.275 17.1445C22.3964 16.9605 22.5583 16.8067 22.7483 16.6949C22.9806 16.5581 23.2334 16.4596 23.497 16.4031C23.8206 16.3312 24.1514 16.2966 24.4829 16.2999C24.7617 16.3009 25.0401 16.3209 25.3161 16.3597C25.6143 16.4001 25.9092 16.461 26.1989 16.5423C26.4935 16.6239 26.7817 16.7273 27.061 16.8517C27.3321 16.9725 27.5913 17.1182 27.8355 17.2868V14.3344C27.3272 14.1421 26.8001 14.0038 26.2628 13.9219C25.6141 13.8275 24.959 13.783 24.3034 13.7888C23.5868 13.785 22.8723 13.8663 22.1749 14.0312C21.5446 14.1752 20.9452 14.4313 20.4053 14.7871C19.9038 15.1212 19.4897 15.5706 19.1977 16.0978C18.8883 16.6832 18.7352 17.3386 18.7533 18.0005C18.7304 18.8758 19.0187 19.7308 19.5669 20.4136C20.2395 21.1706 21.0876 21.751 22.0368 22.1038C22.4699 22.2826 22.8738 22.4575 23.2485 22.6287C23.5865 22.7791 23.9115 22.9575 24.2199 23.1619C24.4687 23.3237 24.6872 23.5279 24.8655 23.7652C25.0222 23.9804 25.1054 24.2404 25.1027 24.5066C25.1041 24.7061 25.0529 24.9025 24.9542 25.0759C24.8445 25.2622 24.6904 25.4184 24.5056 25.5307C24.2743 25.6716 24.0213 25.7734 23.7569 25.8318C23.4124 25.9088 23.06 25.9451 22.7071 25.9401C22.0144 25.9388 21.3272 25.8166 20.6765 25.5791C19.9967 25.3338 19.3663 24.9688 18.8151 24.5015ZM13.5001 16.6248H17.6251V14.0188H6.12354V16.6248H10.23V28.2305H13.5001V16.6248Z" fill="white"/>
</svg>

<svg width="33" height="33" fill="none" xmlns="http://www.w3.org/2000/svg"><path d="M29.584 2.063H3.416c-.748 0-1.353.605-1.353 1.353v26.168c0 .748.605 1.354 1.353 1.354h26.168c.748 0 1.354-.606 1.354-1.354V3.416c0-.748-.606-1.353-1.354-1.353z" fill="#902BA9"/><path fill-rule="evenodd" clip-rule="evenodd" d="M18.815 24.502v3.163a6.691 6.691 0 0 0 1.82.593c.73.135 1.47.201 2.212.198.724.004 1.445-.07 2.154-.217a5.27 5.27 0 0 0 1.789-.722 3.652 3.652 0 0 0 1.218-1.306 4.609 4.609 0 0 0 .192-3.5 3.515 3.515 0 0 0-.74-1.152 5.401 5.401 0 0 0-1.158-.904c-.49-.287-.999-.54-1.523-.757a19.83 19.83 0 0 1-1.114-.5 5.675 5.675 0 0 1-.838-.493 2.155 2.155 0 0 1-.532-.534 1.125 1.125 0 0 1-.187-.638 1.072 1.072 0 0 1 .167-.588c.121-.184.283-.338.473-.45.233-.137.485-.235.749-.292.324-.072.654-.106.986-.103a6.493 6.493 0 0 1 2.578.552c.271.12.53.266.774.435v-2.953a7.741 7.741 0 0 0-1.572-.412 12.82 12.82 0 0 0-1.96-.133 9.042 9.042 0 0 0-2.128.242c-.63.144-1.23.4-1.77.756a3.77 3.77 0 0 0-1.207 1.31A3.847 3.847 0 0 0 18.753 18a3.7 3.7 0 0 0 .814 2.414 6.188 6.188 0 0 0 2.47 1.69c.433.179.837.354 1.212.525.338.15.663.328.97.533.25.162.468.366.646.603.157.215.24.475.238.742.001.2-.05.395-.149.569a1.31 1.31 0 0 1-.448.455c-.232.14-.485.242-.75.3a4.52 4.52 0 0 1-1.049.11 6.058 6.058 0 0 1-3.892-1.439zM13.5 16.625h4.125v-2.606H6.124v2.606h4.106V28.23h3.27V16.625z" fill="#fff"/></svg>
